app/img/advantages-3.svg

<svg width="107" height="108" viewBox="0 0 107 108" fill="none" xmlns="http://www.w3.org/2000/svg">
<g clip-path="url(#clip0)">
<path d="M107 53.7168C107 24.2176 82.9992 0.216797 53.5 0.216797C44.2514 0.216797 35.241 2.61222 27.2522 7.12002H20.7097V0.216797H10.3548V22.1121C3.58968 31.3279 0 42.235 0 53.7168C0 83.2177 24.0008 107.217 53.5 107.217C60.0736 107.217 66.4901 106.035 72.5736 103.712C76.0459 105.919 80.1534 107.217 84.5645 107.217C89.9456 107.217 95.1506 105.282 99.2201 101.77L96.9644 99.1573C93.5215 102.129 89.1189 103.765 84.5645 103.765C74.0975 103.765 65.5806 95.2483 65.5806 84.7813C65.5806 74.3143 74.0975 65.7974 84.5645 65.7974C95.0315 65.7974 103.548 74.3143 103.548 84.7813C103.548 89.1562 102.102 93.2688 99.3633 96.6738L102.054 98.838C105.243 94.8704 107 89.8793 107 84.7813C107 80.3667 105.7 76.2593 103.491 72.7852C105.813 66.7 107 60.2904 107 53.7168ZM27.6129 17.4749H31.0645V20.9265V41.6362H27.6129V17.4749ZM20.7097 10.5716H24.1613V14.0232V41.6362H20.7097V10.5716ZM13.8065 3.66841H17.2581V7.12002V41.6362H13.8065V3.66841ZM51.7742 103.722C25.5488 102.826 4.39045 81.668 3.49476 55.4426H51.7742V103.722ZM51.7742 51.991H3.52065C3.80195 43.5898 6.13524 35.5613 10.3548 28.4044V45.0878H17.2581H20.7097H24.1613H27.6129H31.0645H34.5161H37.9677H41.4194H48.3226V27.8297H41.4194V20.9265H34.5161V14.0232H27.6129V10.903C34.9148 6.47802 43.2125 4.0222 51.7742 3.72881V51.991ZM34.5161 41.6362V24.3781H37.9677V27.8297V41.6362H34.5161ZM41.4194 41.6362V31.2813H44.871V41.6362H41.4194ZM103.505 51.991H88.7306L101.422 39.2994C102.641 43.3395 103.355 47.5936 103.505 51.991ZM94.8089 25.4999L75.5334 44.7754L77.9737 47.2157L96.6987 28.4907C98.0379 30.7757 99.1994 33.1745 100.169 35.6718L83.85 51.991H73.1984L75.4298 49.7595L72.9895 47.3192L68.3178 51.991H57.6661L90.0647 19.5924C91.787 21.439 93.3765 23.4099 94.8089 25.4999ZM55.2258 3.71156C59.6232 3.8617 63.8773 4.57618 67.9174 5.7946L55.2258 18.4862V3.71156ZM55.2258 38.899L76.1995 17.9253L73.7592 15.485L55.2258 34.0184V23.3668L71.545 7.04754C74.0423 8.01572 76.4411 9.17718 78.7261 10.5181L75.9458 13.2984L78.3861 15.7387L81.7169 12.4079C83.8069 13.8403 85.7778 15.4281 87.6244 17.1521L55.2258 49.5507V38.899ZM84.5645 62.3458C72.1939 62.3458 62.129 72.4107 62.129 84.7813C62.129 91.2721 64.9162 97.1087 69.336 101.209C64.7885 102.726 60.0581 103.563 55.2258 103.725V55.4426H103.509C103.346 60.2731 102.503 65.0001 100.987 69.5476C96.8868 65.1296 91.0518 62.3458 84.5645 62.3458Z" fill="white"/>
<path d="M41.9325 62.8508L21.2227 83.5607L23.6633 86.0013L44.3732 65.2914L41.9325 62.8508Z" fill="white"/>
<path d="M39.6935 76.1523C36.839 76.1523 34.5161 78.4753 34.5161 81.3298C34.5161 84.1842 36.839 86.5072 39.6935 86.5072C42.548 86.5072 44.8709 84.1842 44.8709 81.3298C44.8709 78.4753 42.548 76.1523 39.6935 76.1523ZM39.6935 83.0556C38.7426 83.0556 37.9677 82.2824 37.9677 81.3298C37.9677 80.3771 38.7426 79.604 39.6935 79.604C40.6445 79.604 41.4193 80.3771 41.4193 81.3298C41.4193 82.2824 40.6445 83.0556 39.6935 83.0556Z" fill="white"/>
<path d="M25.8871 62.3458C23.0327 62.3458 20.7097 64.6688 20.7097 67.5232C20.7097 70.3777 23.0327 72.7007 25.8871 72.7007C28.7416 72.7007 31.0646 70.3777 31.0646 67.5232C31.0646 64.6688 28.7416 62.3458 25.8871 62.3458ZM25.8871 69.2491C24.9362 69.2491 24.1613 68.4759 24.1613 67.5232C24.1613 66.5706 24.9362 65.7974 25.8871 65.7974C26.8381 65.7974 27.6129 66.5706 27.6129 67.5232C27.6129 68.4759 26.8381 69.2491 25.8871 69.2491Z" fill="white"/>
<path d="M84.5645 83.0555C82.6609 83.0555 81.1129 81.5074 81.1129 79.6039C81.1129 77.7003 82.6609 76.1523 84.5645 76.1523C86.468 76.1523 88.0161 77.7003 88.0161 79.6039H91.4677C91.4677 76.3956 89.2587 73.7171 86.2903 72.9457V69.249H82.8387V72.9457C79.8703 73.7171 77.6613 76.3956 77.6613 79.6039C77.6613 83.411 80.7573 86.5071 84.5645 86.5071C86.468 86.5071 88.0161 88.0551 88.0161 89.9587C88.0161 91.8623 86.468 93.4103 84.5645 93.4103C82.6609 93.4103 81.1129 91.8623 81.1129 89.9587H77.6613C77.6613 93.167 79.8703 95.8454 82.8387 96.6169V100.314H86.2903V96.6169C89.2587 95.8454 91.4677 93.167 91.4677 89.9587C91.4677 86.1516 88.3716 83.0555 84.5645 83.0555Z" fill="white"/>
<path d="M100.097 83.0555H96.6451V86.5072H100.097V83.0555Z" fill="white"/>
<path d="M72.4838 83.0555H69.0322V86.5072H72.4838V83.0555Z" fill="white"/>
</g>
<defs>
<clipPath id="clip0">
<rect width="107" height="107" fill="white" transform="translate(0 0.216797)"/>
</clipPath>
</defs>
</svg>

<svg width="107" height="108" viewBox="0 0 107 108" fill="none" xmlns="http://www.w3.org/2000/svg"><g clip-path="url(#a)" fill="#fff"><path d="M107 53.717c0-29.5-24-53.5-53.5-53.5A53.342 53.342 0 0 0 27.252 7.12H20.71V.217H10.355v21.895C3.59 31.328 0 42.235 0 53.717c0 29.5 24 53.5 53.5 53.5 6.574 0 12.99-1.182 19.074-3.505a22.283 22.283 0 0 0 11.99 3.505 22.439 22.439 0 0 0 14.656-5.447l-2.256-2.613a18.98 18.98 0 0 1-12.4 4.608c-10.466 0-18.983-8.517-18.983-18.984 0-10.467 8.516-18.984 18.983-18.984 10.468 0 18.984 8.517 18.984 18.984 0 4.375-1.446 8.488-4.185 11.893l2.691 2.164A22.511 22.511 0 0 0 107 84.781c0-4.414-1.3-8.522-3.509-11.996A53.27 53.27 0 0 0 107 53.717zM27.613 17.475h3.451v24.161h-3.451V17.475zm-6.903-6.903h3.451v31.064H20.71V10.572zm-6.904-6.904h3.452v37.968h-3.451V3.668zm37.968 100.054c-26.225-.896-47.384-22.054-48.28-48.28h48.28v48.28zm0-51.731H3.521c.281-8.401 2.614-16.43 6.834-23.587v16.684h37.968V27.83h-6.904v-6.903h-6.903v-6.904h-6.903v-3.12c7.302-4.425 15.6-6.88 24.161-7.174V51.99zM34.516 41.636V24.378h3.452v17.258h-3.452zm6.903 0V31.281h3.452v10.355h-3.452zm62.086 10.355H88.731l12.691-12.692a49.755 49.755 0 0 1 2.083 12.692zM94.809 25.5L75.533 44.775l2.44 2.44L96.7 28.492a49.952 49.952 0 0 1 3.47 7.18l-16.32 16.32H73.198l2.232-2.231-2.44-2.44-4.672 4.671H57.666l32.399-32.399a50.635 50.635 0 0 1 4.744 5.908zM55.226 3.712c4.397.15 8.651.864 12.691 2.083L55.226 18.486V3.712zm0 35.187L76.2 17.925l-2.44-2.44-18.534 18.533V23.367l16.319-16.32a49.625 49.625 0 0 1 7.181 3.471l-2.78 2.78 2.44 2.44 3.33-3.33a50.458 50.458 0 0 1 5.908 4.744L55.226 49.551V38.899zm29.338 23.447c-12.37 0-22.435 10.065-22.435 22.435 0 6.491 2.787 12.328 7.207 16.428a49.738 49.738 0 0 1-14.11 2.516V55.443h48.283a49.79 49.79 0 0 1-2.522 14.105c-4.1-4.418-9.935-7.202-16.422-7.202z"/><path d="M41.932 62.85l-20.71 20.71 2.441 2.441 20.71-20.71-2.44-2.44zm-2.238 13.302a5.184 5.184 0 0 0-5.178 5.178 5.184 5.184 0 0 0 5.178 5.177 5.184 5.184 0 0 0 5.177-5.177 5.184 5.184 0 0 0-5.178-5.178zm0 6.904a1.728 1.728 0 0 1-1.726-1.726c0-.953.775-1.726 1.725-1.726a1.727 1.727 0 0 1 .001 3.452zm-13.807-20.71a5.184 5.184 0 0 0-5.177 5.177 5.184 5.184 0 0 0 5.177 5.178 5.184 5.184 0 0 0 5.178-5.178 5.184 5.184 0 0 0-5.178-5.177zm0 6.903c-.95 0-1.726-.773-1.726-1.726 0-.952.775-1.726 1.726-1.726s1.726.774 1.726 1.726c0 .953-.775 1.726-1.726 1.726zm58.677 13.806a3.455 3.455 0 0 1-3.451-3.451 3.455 3.455 0 0 1 3.451-3.452 3.455 3.455 0 0 1 3.452 3.452h3.452c0-3.208-2.21-5.887-5.178-6.658v-3.697h-3.45v3.697c-2.969.771-5.178 3.45-5.178 6.658a6.91 6.91 0 0 0 6.903 6.903 3.455 3.455 0 0 1 3.452 3.452 3.455 3.455 0 0 1-3.452 3.451 3.455 3.455 0 0 1-3.451-3.451H77.66c0 3.208 2.21 5.886 5.178 6.658v3.697h3.451v-3.697c2.969-.772 5.178-3.45 5.178-6.658a6.91 6.91 0 0 0-6.904-6.904zm15.533 0h-3.452v3.452h3.452v-3.452zm-27.613 0h-3.452v3.452h3.452v-3.452z"/></g><defs><clipPath id="a"><path fill="#fff" transform="translate(0 .217)" d="M0 0h107v107H0z"/></clipPath></defs></svg>
